X:1
T:Concerto in D Minor after Marcello
T:Harpsichord Concerto in D Minor, BWV 974
T:J. S. Bach
T:After Oboe Concerto by Alessandro Marcello Harpsichord, A = 415
C:Alessandro Marcello
%%score { ( 1 4 5 ) | ( 2 3 6 ) }
L:1/8
Q:1/4=80
M:4/4
K:F
V:1 treble nm="ハープシーコード"
V:4 treble 
V:5 treble 
V:2 bass 
V:3 bass 
V:6 bass 
V:1
"^(I. Andante)" dD z D EAA,E | FD z B CAB,G | A,2 z/ A,/=B,/^C/ D/E/F/G/ AA, | %3
 !arpeggio![DFAd]2 z/ d/e/f/ PeA a/g/a/e/ | fd z B C/E/F/A/ B,/D/E/G/ | %5
 A,2 z/ A,/=B,/^C/ D/E/F/G/ AA, | !arpeggio![DFAd]2 z/ d/e/f/ PeA a/g/a/e/ | %7
 fd z/ f/g/f/ (f/e/)(e/a/) (a/e/)(a/e/) | (e/d/)(d/g/) (g/d/)(g/d/) (Pd^c) z A | %9
 (=B/^c/)((c/d/)) (d/e/)(e/f/) (f/d/)(d/e/) (e/^f/)(f/g/) | %10
 g2- g/a/4b/4a/g/ (f/e/4g/4f/4e/4f/4d/4) P^c>d | d2 z A (=B/^c/)(c/d/) (d/e/)(e/f/) | %12
 (f/d/)(d/e/) (e/^f/)(f/g/) !arpeggio![Bdg-]2 g/e/A/a/ | fe/d/ ^c2 d/ d/(d/f/) (f/a/)(a/=c/) | %14
 (c/B/)(B/e/) (e/g/)(g/B/) (B/A/)(A/c/) (c/f/)(f/A/) | %15
 (A/G/)(G/B/) (B/e/)(e/G/) (G/F/)(F/c/) f/g/4a/4g/a/4f/4 | Pe2 z c (d/c/)(c/d/) (d/c/)(c/d/) | %17
 dG z d (e/d/)(d/e/) (e/d/)(d/e/) | eA z e (f/e/)(e/f/) (f/e/)(e/f/) | %19
 fB z f (g/b/)(b/g/) (g/e/)(e/c/) | c/e/f/g/ Te>f fF z F | G/F/G/C/ c/B/c/G/ AF z d | %22
 E/G/A/c/ D/F/G/B/ C2 z/ C/D/E/ | F/G/A/B/ cC !arpeggio![FAcf]2 z/ f/g/a/ | %24
 gc g/B/g/B/ PBA z/ c/f/c/ | d/B/d/f/ c/A/c/f/ d/B/F/B/ z/ d/g/d/ | %26
 e/c/e/g/ d/=B/d/g/ e/c/G/c/ z/ e/a/e/ | f/d/f/a/ e/^c/e/a/ (f/a/)(a/f/) (f/d/)(d/B/) | %28
 (B/g/)(g/e/) (e/=c/)(c/A/) (A/f/)(f/d/) (d/=B/)(B/^G/) | %29
 (^G/4=B/4c/4d/4e/B/) G/B/e/B/ (c/4e/4f/4=g/4a/)e/ ^c/e/a/e/ | %30
 (f/a/)(a/f/) (f/d/)(d/^g/) P[dg]2 z/ e/^f/g/ | %31
 a/e/c/f/ z/ a/^g/=b/ c/e/a z/ (A/4=B/4c/4d/4e/4f/4) | G/=B/c/e/ F/A/B/d/ E2 z/ E/^F/^G/ | %33
 A/=B/c/d/ eE z/ a/a/e/ e/^c/c/A/ | A/^c/c/e/ e/a/a/g/ ^f2 z2 | %35
 z/ g/g/d/ d/=B/B/G/ G/B/B/d/ d/g/g/f/ | e2 z2 z/ f/f/c/ c/A/A/F/ | F/A/A/c/ c/f/f/e/ d2 z2 | %38
 z/ e/e/B/ B/G/G/E/ E/G/G/B/ B/d/d/_d/ | _d/A/^c/=d/4e/4 c/A/c/e/ ^f/d/f/g/4a/4 f/d/f/a/ | %40
 =b/G/=B/c/4d/4 B/G/B/d/ e/c/e/f/4g/4 e/c/e/g/ | a/F/A/B/4c/4 A/F/A/c/ d/B/d/_e/4f/4 d/B/d/^f/ | %42
 g4 x4 | z/ g/f/g/4e/4 Pe2 d2 z P^f | (g/^f/)(f/g/) (g/f/)(f/g/) (gPf) z ^g | %45
 (a/^g/)(g/a/) (a/g/)(g/a/) (a/e/)(e/=f/) (f/^c/)(c/d/) | (d/A/)(A/B/) (B/^F/)(F/G/) G2- G/B/A/G/ | %47
 F/A/d/e/ Pe>d d2 z f | (f/e/)(e/f/) (g/a/)(g/f/) (f/e/)(e/f/) (g/a/)(g/f/) | %49
 (fPe) z A (=B/^c/)(c/d/) (d/e/)(e/f/) | (f/d/)(d/e/) (e/^f/)(f/g/) g3 (=f/g/4a/4) | %51
 Pfe/d/ P^c2 d2 z A, | ((=B,/^C/))(C/D/) (D/E/)(E/F/) (F/_G/)(^F/=G/) (G/A/)(A/B/) | %53
 D/G/A/B/- B/B/A/G/ G/F/E/D/ z [GA^c] | [FAd]2 z2 z4 |][M:3/4][Q:1/4=54] z6 | z6 | z6 | %58
!p! (df) (fa) (ac'/b/) | Mb4 z2 | (ce/d/) (eg/f/) (gb/a/) | Ma4 z2 | %62
 (B/c/4A/4B/d/4^c/4) (d/e/4c/4d/f/4e/4 f/g/4e/4f/a/4g/4) | Mg4 z2 | %64
 (A/4^G/4A/4=B/4A/4B/4^c/4B/4) (c/4d/4c/4d/4e/4d/4e/4f/4 e/4f/4g/4f/4g/4f/4g/4e/4) | %65
 Mf2 z/ f/b/a/ b/g/g/4f/4e/4f/4 | Pe2 z/ e/f/a/4g/4 a/4f/g/<Pe/f/4 | %67
{e} d2 z/4 (d/4e/4f/4g/4f/4e/4f/4) (g/f/4e/4f/g/) |!f! P^c4 z2 | (^fa) (af) (c/a/f/c/) | %70
 (c2 PB2) z2 | (^g/=b/g/a/) (b/g/e/b/) (g/e/d/b/) | (dc) (fe) (eMf-) | fg/f/ ef/d/ Me2- | %74
 e/(g/f/e/) (d/^c/)(e/d/) Md2 | (d/c/=B/c/ d/e/f/e/) (dc-) | (c/B/c/A/ B/c/d/e/ f/g/a/b/) | %77
 Pe2- (e/4d/4c/4d/4e/4d/4f/4e/4) Mf2- | (f/>g/f/4e/4f/4g/4) Pg2- (g/f/g/4e/4f/4d/8_e/8) | %79
 M_e2- eg (b/g/f/e/) | M_e2- (e/g/a/b/) (c'/a/f/e/) | %81
 P_e2 d3/2=e/4^f/4 (g/4a/4b/4a/4g/4=f/4e/4g/8f/8) | (f Mg2) a (g/fg/4e/4) | %83
 (Mf/>g/f/4e/4f/4g/4) d-(d/4^c/4=B/4c/4) (Pc/>d/c/d/4_B/4) |{A} G6- | G/F/E/F/ G/A/B/A/ g/e/f/^c/ | %86
 Pd/>e/d/4^c/4d/4e/4 Pe2- (e/d/=B/4d/4f/4a/4) | %87
 P^g-(g/4a/4g/4^f/4) (e/4f/4g/4f/4g/4a/4g/4f/8g/8) (a/4b/4a/4=g/4=f/g/4e/4) | %88
 (f/4g/4a/4g/4f/4e/4f/4d/4) d/>^c/d/4=B/4c/ Pc>d | d4 z2 | [DE][DE][DE][DE][CE][CE] | %91
 [D^F][DF][DF][DF][DF][DF] | [DG][DG][DG][DG][DG][DG] | G3 AFE | FG PE4 | D6 |] %96
[M:3/8]"^(III.) Presto"[Q:3/16=120] d/A/d/e/f/d/ | e/A/e/f/g/e/ | f/e/d/e/f/g/ | a2 A | %100
 a/g/f/e/d/c/ | B/d/g z | g/f/e/d/c/B/ | A/c/f z | f/e/d/c/B/A/ | G/B/e z | e/d/^c/=B/A/G/ | %107
 F/A/ d2- | d/e/ ^c2 | d/A/d/e/f/d/ | e/A/e/f/g/e/ | f/e/d/e/f/g/ | a2 A | a/f/d/f/b/g/ | e/g/c z | %115
 f/d/B/d/g/e/ | ^c/e/A z | f/e/d/e/f/d/ | g/f/e/f/g/e/ | a/g/f/g/a/f/ | b/a/g/f/e/d/ | c>cf- | %122
 f/g<"^₍     ₎"Pgf/ | f/c/f/g/a/f/ | g/c/g/a/b/g/ | a/g/f/g/a/b/ | c'2 c | f/c/f/g/a/f/ | %128
 g/c/g/a/b/g/ | a/g/f/g/a/b/ | c'2 c | f/c/A/c/f/c/ | d/f/B z | g/d/=B/d/g/d/ | e/g/c z | %135
 a/e/^c/e/a/e/ | f/a/f/d/b/g/ | e/g/e/c/a/f/ | d/f/d/B/g/e/ | c/e/c/A/f/d/ | B/d/B/G/e/c/ | %141
 A/c/A/F/d/=B/ | ^G/E/G/=B/e/B/ | c/A/c/e/a/e/ | f/d/f/a/d'/=b/ | ^g>ea- | a/=b/ P^g2 | a3 | %148
!f! e/d/c/=B/A/G/ | F/A/d z | d/c/=B/A/G/F/ | E/G/c z | c/=B/A/G/F/E/ | D/F/=B z | %154
 =B/A/^G/^F/E/D/ | C/E/ A2- | A/=B/ ^G2 | A3 :: a/e/a/b/=c'/a/ | ^f>dg/B/ | A/g/A/g/A/^f/ | %161
 g/d/g/a/b/g/ | e>cf/A/ | G/f/G/f/G/e/ | f/c/f/g/a/f/ | g/c/g/a/b/g/ | a/g/f/g/a/b/ | c'2 c | %168
 f/c/c/(_e/4d/4)e/e/ | (P_e/d/)d z | g/d/d/f/4=e/4f/f/ | (Pf/e/)e z | a/e/e/g/4^f/4g/g/ | %173
 (Pg/^f/)f z | b/=f/f/_a/4g/4a/a/ | (P_a/g/)g/(b/4=a/4)b/c'/ | _e/f/a/g/f/e/ | d/b/c/b/c/a/ | %178
 d/F/B/c/d/B/ | c/F/c/d/_e/c/ | d/c/B/c/d/_e/ | f/c/A/c/F/ z/ | f/d/B/d/f/B/ | g2 z | %184
 g/=e/c/e/g/e/ | a2 z | a/^f/d/f/a/d/ | b>ag/^f/ | g/a/ ^f2 | g/d/G/B/d/=f/ | _e/g/c/e/g/B/ | %191
 A/c/F/A/c/_e/ | d/f/B/d/f/_A/ | G/B/_E/G/B/d/ | c/_e/A/c/e/G/ | ^F/A/D/F/A/c/ | B/d/G/B/d/g/ | %197
 ^c/A/c/A/c/A/ | d/A/d/A/=e/A/ | =ffg | (^c/e/a/)g/f/e/ | f/g/4e/4 Pe2 | d/A/d/e/f/d/ | %203
 e/A/e/f/g/e/ | f/e/d/e/f/g/ | a2 A | a/g/f/e/d/c/ | B/d/g z | g/f/e/d/c/B/ | A/c/f z | %210
 f/e/d/c/B/A/ | G/B/e z | e/d/^c/=B/A/G/ | F/-A/ d2- | d/e/ ^c2 | d/b/b/a/a/g/ | g/g/g/f/f/e/ | %217
 e z z | d/4A/4=B/4^c/4d/A/e/A/ | ffg | (^c/e/a/g/f/e/) | f/g/4e/4 Pe2 | d2 z :| %223
V:2
 DD, z D, E,A,A,,E, | F,D, z B, C,A,B,,G, | A,,2 z/ A,,/=B,,/^C,/ D,/E,/F,/G,/ A,A,, | %3
 !arpeggio![F,A,]2 z2 [E,A,]2 z ^C, | D, D,/E,/F,/G,/A,/B,/ C,A,B,,G, | %5
 A,,2 z/ A,,/=B,,/^C,/ D,/E,/F,/G,/ A,A,, | [F,A,]2 z2 [E,A,]2 z2 | [F,A,]2 z2 [G,B,]2 z2 | %8
 [F,A,]2 z2 [E,G,] z z F, | [D,G,] z z [G,^C] [A,D] z z [C,A,] | D,2 E,A, A,B,A,G, | %11
 [F,A,]2 z D (D/E/)(E/F/) (F/^C/)(C/D/) | %12
 (D/F,/)(F,/G,/) (G,/A,/)(A,/B,/) z/ D,/G,/B,/ z/ G,/F,/E,/ | D, z A,2- A,FFF | %14
 [DF][DF]EE [CE][CE]DD | [B,D][B,D]CC [A,C][A,C]B,B, | [G,B,] x x2 x4 | %17
 B,/B,,/D,/F,/ B,/D/G,/=B,/ C_B,CB, | x8 | D/D,/F,/A,/ D/F/B,/D/ EDEC | FA,/B,/ CC, [F,A,C]2 z F, | %21
 G,C,CG, A,F, z D | E,CD,B, C,2 z/ C,/D,/E,/ | F,/G,/A,/B,/ CC, [F,A,C]G,A,F, | [G,C]2 z E, C2 z2 | %25
 z F z F B,2[K:treble] D/F/=B,/D/ | z G z G C2 E/G/^C/E/ | DA^CA DFDF |[K:bass] G,FCE F,E=B,D | %29
 D2 z2 A,2 z2 | D2 z2 =B,/D/A,/D/ B,/D/B,/D/ | CA, E,2 A,,>E, A,F | G,EF,D E,2 z/ E,/^F,/^G,/ | %33
 A,/=B,/C/D/ EE, A, z z2 | z z/ A,/ A,/A,/A,/A,/ x2 z2 | =B, z z2 z3/2 G,/ G,/G,/G,/G,/ | %36
 x2 z2 A, z z2 | z3/2 F,/ F,/F,/F,/F,/ z2 z2 | G, z/ E/ E/B,/B,/G,/ G,/B,/B,/G,/ G,/E,/E,/G,/ | %39
 z [E,G,][E,G,][E,G,] z [A,C][A,C][A,C] | z [D,F,][D,F,][D,F,] z [G,B,][G,B,][G,B,] | %41
 z [C,_E,][C,E,][C,E,] z [D,F,][D,F,][C,A,] | %42
 [G,,B,,D,]/ G,/D,/B,,/ G,,/G,/D,/B,,/ G,,/B,,/D,/G,/ G,,/B,,/D,/G,/ | z/ A,3/2- A,2 x4 | %44
 B,/D,/A,/D,/ B,/D,/A,/D,/ B,/D,/A,/D,/ B,/D,/=B,/E,/ | %45
 C/E,/=B,/E,/ C/E,/B,/E,/ C/A,/^C/A,/ D/A,/E/A,/ |[K:treble] F/D/^F/D/ G/D/A/D/ B/E/=F/G/ P^C2 | %47
[K:bass] z/ D/B,/G,/ A,/G,/A,/A,,/ D,/D,,/F,,/A,,/ D,/F,/A,/D/ | %48
 z/ ^C/(C/D/) (E/F/)(E/D/) (D/C/)(C/D/) (E/F/)(E/D/-) | D/D/^C z2 z A,=B,C | %50
 DF,G,A, D,/ z3/2 z/ E,/A,- | A,B, A,2 A,2 z F, | G,A,=B,^C (D/A,/)(A,/_B,/) (B,/=C/)(C/D/) | %53
 G,,/B,,/D,/G,/ _D,/B,/A,/G,/ G,/F,/E,/=D,/ MA,A,, | [D,,D,]2 z2 z4 |] %55
[M:3/4]"^(II.) Adagio"!mf! DDDDDD | EEEEEE | [EG][EG][EG][EG][EG][EG] | [DF][DF][DF][DF][DF][DF] | %59
 [DF][DF][DF][DF][DF][DF] | EEEEEE | [CE][CE][CE][CE][CE][CE] | DDDDDD | %63
 [B,D][B,D][B,D][B,D][B,D][B,D] | ^CCCCCC | DD[K:treble] [FB][FB][FB][FB] | %66
 [GB][GB] [EA][EA][EA][EA] | [FA][FA] [DG][DG][DG][DG] | [EG][EG][K:bass] A,A,A,A, | %69
!p! A,D[K:treble] [^FA][FA][FA][FA] | [DG][DG][DG][DG][DG][DG] | [^G=B][GB][GB][GB][GB][GB] | %72
 [EA][EA] cccc | BBBBBB | AAAAAA | GGGGGG | FFFF[FB][FB] | [GB][GB][GB][GB][FA][FA] | GF- F2 E2 | %79
 [B,G][B,G][B,G][B,G][B,G][B,G] | [CF][CF][CF][CF][CF][CF] | FFFFDG | ^CCCCDD | DE EGFE | %84
 (D/^C/)(E/D/) (F/E/)(G/F/) (E/D/)(C/D/) | P^CCCC[K:bass] [A,^C][A,D] | [B,D][B,D] ^CGFE | %87
 [=B,D][B,D][B,D][B,D] ^CC | DB, A,2 A,2 | D,!f!D,D,D,D,D, | E,E,E,E,E,E, | D,D,D,D,D,D, | %92
 D,D,E,E,E,E, | E,E,E,E, D,2- | D,/(^C,/D,/E,/) z/ D,/E,/F,/ E,^F,/G,/ | ^F,6 |][M:3/8] D3 | ^C3 | %98
 D B,2 | A,/B,/A,/G,/F,/E,/ | D,/A,/D z | D/C/B,/A,/G,/F,/ | E,/G,/C z | C/B,/A,/G,/F,/E,/ | %104
 D,/F,/B, z | B,/A,/G,/F,/E,/D,/ | ^C,/E,/A, z | D,/^C,/D,/E,/F,/D,/ | G,/E,/A,/G,/A,/A,,/ | %109
 D,F,A, | ^C,E,A, | D,F,A, | A,,/B,/A,/G,/F,/E,/ | D,F,G,, | C,/E,/G,/B,,/A,,/F,/ | B,,D,E,, | %116
 A,,/^C,/E,/C,/A,,/C,/ | D,/E,/F,/G,/A,/B,/ | E,/F,/G,/A,/B,/C/ | F,/G,/A,/B,/C/D/ | %120
 G,/A,/B,/A,/G,/B,/ | A,/G,/F,/E,/D,/C,/ | D,/B,,/C,/B,,/C,/C,,/ | F,,A,,F,, | C,E,C, | F,A,F, | %126
 C/D/C/B,/A,/G,/ | F,A,F, |[K:treble] CEC | FAF | c/C/E/G/c/B,/ |[K:bass] A,F,A, | B,/D/F/E/D/C/ | %133
 =B,G,B, | C/E/G/F/E/D/ | ^CA,C | DD,"^Solo"G, | CC,F, | B,B,,E, | A,A,,D, | G,G,,C, | %141
 F,/A,/F,/D,/=B,,/D,/ | E,/D,/E,/^F,/^G,/E,/ | A,/^G,/A,/=B,/C/A,/ | D/^C/D/E/F/D/ | %145
 E/F/E/D/=C/=B,/ | A,/D/E/D/E/E,/ | A,/^G,/A,/E,/C,/E,/ |"^(   )" A,,/E,/A, z | %149
 A,/G,/F,/E,/D,/C,/ | =B,,/D,/G, z | G,/F,/E,/D,/C,/=B,,/ | A,,/C,/F, z | F,/E,/D,/C,/=B,,/A,,/ | %154
 ^G,,/=B,,/E, z | A,,/^G,,/A,,/=B,,/C,/A,,/ | D,/=B,,/E,/D,/E,/E,,/ | A,,3 :: A,CA, | D/_E/D/C/B, | %160
 CDD, | G,B,G, | C/D/C/B,/A, | B,CC, | F,A,F, |[K:treble] CEC | FAF | E/F/E/D/C/B,/ | A,/C/F z | %169
 B,/D/F/_E/D/C/ | =B,/D/G z | C/E/G/F/E/D/ | ^C/E/A z | D/^F/A/G/F/E/ | D/=F/B z | %175
[K:bass] _E/F/E/D/C | PF>_ED/C/ | B,/_E/F/E/F/F,/ | B,DB, | F,A,F, | B,,D,B,, | %181
 F,,2[K:treble] z/ _E/ | B z z | z/ G/_E/G/B/G/ | c z z | z/ A/F/A/c/A/ | d z z | G/A/G/=F/_E/D/ | %188
[K:bass] _E/C/D/C/D/D,/ | G,B,G, | C,_E,C, | F,A,F, | B,,D,B,, | _E,G,E, | A,,C,A,, | D,^F,D, | %196
 G,,B,,G,, | A,,A,G, | z D^C | DA,B, | E,2 A, | B, A,2 | D,F,D, | A,^CA, |[K:treble] D/E/F/G/A/B/ | %205
[K:bass] ^C/D/C/=B,/A,/G,/ | F,/E,/D,/E,/F,/D,/ | G,/A,/B,/A,/G,/F,/ | E,/D,/C,/D,/E,/C,/ | %209
 F,/G,/A,/G,/F,/E,/ | D,/C,/B,,/C,/D,/B,,/ | E,/F,/G,/F,/E,/D,/ | ^C,/=B,,/A,,/B,,/C,/A,,/ | %213
 D,/^C,/D,/E,/F,/D,/ | G,/E,/A,/G,/A,/A,,/ | D,D=C | B,G,E, | A,A,,G,, | z D^C | DA,B, | E,2 A, | %221
 B, A,2- | A,2 z :| %223
V:3
 x8 | x8 | x8 | !arpeggio!D,E,F,D, ^C,2 z A,, | D,, x3 x4 | x8 | D,E,F,D, ^C,2 z A,, | %7
 D,DB,G, C,2 z A, | B,,2 z G, A,,A,/G,/ F,D, | G,,G,F,E, D,C,B,,A,, | B,,B,^C,A,, D,G,A,A,, | %11
 D,E,F,D, G,2 F,E, | D,2 D,C, B,,2 _D,2 | D,G,A,A,, D,DDD | G,G,CC F,F,B,B, | E,E,A,A, D,D,G,G, | %16
 C,CA,F, B,A,B,A, | x8 | C/C,/E,/G,/ C/E/A,/^C/ DCDC | x8 | x8 | x8 | x8 | x8 | E,2 z C, F,G,A,F, | %25
 B,2 A,2 B,2[K:treble] z2 | C2 =B,2 C2 z2 | x8 |[K:bass] x8 | [E,^G,B,]2 z2 [A,,C,E,]2 z2 | %30
 [D,F,A,]2 z2 E,^F,^G,E, | A,D,E,E,, A,,2 x2 | x8 | x8 | %34
 z/ A,/A,/E,/ E,/[^C,E,]/[C,E,]/[A,,C,E,]/ (D,/^F,/A,/C/)[I:staff -1] (D/^F/A/^c/) | %35
[I:staff +1] G, z z2 z/ G,/G,/D,/ D,/[=B,,D,]/[B,,D,]/[G,,B,,D,]/ | %36
 (C,/E,/G,/B,/)[I:staff -1] (C/E/G/B/)[I:staff +1] F, z z2 | %37
 z/ F,/F,/C,/ C,/[A,,C,]/[A,,C,]/[F,,A,,C,]/ (B,,/D,/F,/A,/)[I:staff -1] (B,/D/F/A/) | %38
[I:staff +1] E, x x2 z4 | A,,A,,A,,A,, D,D,D,D, | G,,G,,G,,G,, C,C,C,C, | %41
 F,,F,,F,,F,, B,,B,,B,,A,, | x8 | A,,D,A,A,, D,, D,/E,/ ^F,/G,/A,/D,/ | x8 | x8 |[K:treble] x8 | %47
[K:bass] x8 | A,8- | A,>G, F,/E,/F,/D,/ G,2 F,E, | %50
 D,2 D,C, B,,/ (B,/4A,/4G,/4F,/4E,/4D,/4) ^C,>C, | D,G,A,A,, D,E,F,D, | G,,G,F,E, D,C,B,,A,, | x8 | %54
 x8 |][M:3/4] x6 | DDDDDD | [A,^C][A,C][A,C][A,C][A,C][A,C] | D, z z2 z2 | G,G,G,G,G,G, | CCCCCC | %61
 F,F,F,F,F,F, | B,B,B,B,B,B, | E,E,E,E,E,E, | A,A,A,A,A,A, | D,D,[K:treble] DDDD | DD CCCC | %67
 CC B,B,B,B, | A,A,[K:bass] A,,A,,A,,A,, | D,2[K:treble] DDDD | G,G,G,G,G,G, | EEEEEE | A,A, AAAA | %73
 GGGGGG | FFFFFF | EEEEEE | DDDDDD | CCCCDD | [B,D]2 C4 | G,G,G,G,G,G, | A,A,A,A,A,A, | %81
 B,B,B,B,B,B, | A,A,A,A,B,B, | [G,B,][G,B,] A,A,A,A, | B,B,B,B,B,B, | A,A,A,A,[K:bass] F,F, | %86
 G,G, A,A,A,A, | E,E,E,E, A,A, | D,G, A,G,A,A,, | z D,,D,,D,,D,,D,, | A,,A,,A,,A,,A,,A,, | %91
 D,,D,,D,,D,,D,,D,, | G,,G,,G,,G,,G,,G,, | A,,A,,A,,A,,B,,B,, | G,,G,, A,,A,, A,,A,, | D,,6 |] %96
[M:3/8] x3 | x3 | x3 | x3 | x3 | G,2 z | x x2 | F,2 z | x3 | E,2 z | x x2 | x3 | x3 | x3 | x3 | %111
 x3 | x3 | x3 | x3 | x3 | x3 | x3 | x3 | x3 | x3 | x3 | x3 | x3 | x3 | x3 | x3 | x3 | %128
[K:treble] x3 | x3 | x3 |[K:bass] x3 | x3 | x3 | x3 | x3 | x3 | x3 | x3 | x3 | x3 | x3 | x3 | x3 | %144
 x3 | x3 | x3 | x3 | x3 | D,2 z | x3 | C,2 z | x3 | B,,2 z | x3 | x3 | x3 | x3 :: x3 | x3 | x3 | %161
 x3 | x3 | x3 | x3 |[K:treble] x3 | x3 | x3 | x3 | x3 | x3 | x3 | x3 | x3 | x3 |[K:bass] x3 | x3 | %177
 x3 | x3 | x3 | x3 | x2[K:treble] x | D z z | _E z z | =E z z | F z z | ^F z z | x3 |[K:bass] x3 | %189
 x3 | x3 | x3 | x3 | x3 | x3 | x3 | x3 | x3 | F,2 E, | D,C,B,, | A,,^C,D, | G,A,A,, | x3 | x3 | %204
[K:treble] x3 |[K:bass] x3 | x3 | x3 | x3 | x3 | x3 | x3 | x3 | x3 | x3 | x3 | x3 | x3 | F,,F,E, | %219
 D,=C,B,, | A,,^C,D, | G,A,A,, | D,2 z :| %223
V:4
 x8 | x8 | x8 | x8 | x8 | x8 | x8 | x8 | x8 | x8 | x8 | x2 x F GA A2- | AAB[Ad] !arpeggio!G2 z A- | %13
 AG/F/ E2 F/ x/ x x2 | x8 | x8 | x8 | x8 | x8 | x8 | x8 | x8 | x8 | x8 | x8 | x8 | x8 | x8 | x8 | %29
 x8 | x8 | x2 B2 c2 x2 | x8 | x4 A z/ [A^c]/ [Ac]/[EA]/[EA]/[^CE]/ | %34
 [^CE]/[EA]/[EA]/[A^c]/ [Ac]/[Ace]/[Ace]/[Ace]/ [Ad]2 x2 | %35
 z3/2 [G=B]/ [GB]/[DG]/[DG]/[=B,D]/ [B,D]/[DG]/[DG]/[GB]/ [GB]/[GBd]/[GBd]/[GBd]/ | %36
 [Gc]2 x2 z3/2 [FA]/ [FA]/[CF]/[CF]/[A,C]/ | %37
 [A,C]/[CF]/[CF]/[FA]/ [FA]/[FAc]/[FAc]/[FAc]/ [FB]2 x2 | %38
 z3/2 G/ G/E/E/^C/ C/[CE]/[CE]/[EG]/ [EG]/[GB]/[G-B] | [GA]/ z/ x x2 x4 | x8 | x8 | %42
 z/ G/B/d/ B/G/B/d/ g/d/g/b/ g/d/g/b/ | _d=d-d^c d2 x2 | x8 | x8 | x8 | x2 ^c2 d2 z2 | x8 | x8 | %50
 x8 | x8 | x4 z/ D/(D/E/) (E/^F/)(F/G/) | D2 E2 z2 MAE | z8 |][M:3/4] x6 | x6 | x6 | F z z4 | x6 | %60
 x6 | x6 | x6 | x6 | x6 | x6 | x6 | x6 | z2 [EGA][EGA][EGA][EGA] | [Ac] z z4 | x6 | x6 | x6 | x6 | %74
 x6 | x6 | x6 | x6 | x6 | x6 | x6 | x6 | x6 | x6 | x6 | x6 | x6 | x6 | x6 | %89
 z [DF][DF][DF][DF][DF] | A,A,A,A,A,A, | [A,C][A,C][A,C][A,C][A,C][A,C] | [G,C][G,B,]B,B,B,B, | %93
 ^CCCCDC | D4 ^C2 | A,6 |][M:3/8] x3 | x3 | x3 | x3 | x3 | x3 | x3 | x3 | x3 | x3 | x3 | F>GA/F/ | %108
 B E2 | D z z | x3 | x3 | x3 | x3 | x3 | x3 | x3 | x3 | x3 | x3 | x3 | x3 | x3 | x3 | x3 | x3 | %126
 x3 | x3 | x3 | x3 | x3 | x3 | x3 | x3 | x3 | x3 | x3 | x3 | x3 | x3 | x3 | x3 | x3 | x3 | x3 | %145
 x3 | x3 | x3 | x3 | x3 | x3 | x3 | x3 | x3 | x3 | C>DE/C/ | F =B,2 | [^CE]3 :: x3 | x3 | x3 | x3 | %162
 x3 | x3 | x3 | x3 | x3 | x3 | x3 | x3 | x3 | x3 | x3 | x3 | x3 | x3 | x3 | x3 | x3 | x3 | x3 | %181
 x3 | x3 | x3 | x3 | x3 | x3 | x3 | x3 | x3 | x3 | x3 | x3 | x3 | x3 | x3 | x3 | x3 | x3 | %199
 z/ A/d/A/d/G/ | x3 | d2 ^c | x3 | x3 | x3 | x3 | x3 | x3 | x3 | x3 | x3 | x3 | x3 | FF/G/A/F/ | %214
 B E2 | D z z | z/ e/e/d/d/^c/ | ^c/A/4=B/4c/A/c/A/ | x3 | z/ A/d/A/d/A/ | x3 | d ^c2 | [^FA]2 z :| %223
V:5
 x8 | x8 | x8 | x8 | x8 | x8 | x8 | x8 | x8 | x8 | x8 | x8 | x8 | x8 | x8 | x8 | x8 | x8 | x8 | %19
 x8 | x8 | x8 | x8 | x8 | x8 | x8 | x8 | x8 | x8 | x8 | x8 | x8 | x8 | x8 | x8 | x8 | x8 | x8 | %38
 x8 | x8 | x8 | x8 | x8 | x8 | x8 | x8 | x8 | x8 | x8 | x8 | x8 | x8 | x8 | x/ G3/2 x2 x4 | x8 |] %55
[M:3/4] x6 | x6 | x6 | x6 | x6 | x6 | x6 | x6 | x6 | x6 | x6 | x6 | x6 | x6 | x6 | x6 | x6 | x6 | %73
 x6 | x6 | x6 | x6 | x6 | x6 | x6 | x6 | x6 | x6 | x6 | x6 | x6 | x6 | x6 | x6 | z2 z A,A,A, | x6 | %91
 x6 | x6 | x6 | x6 | x6 |][M:3/8] x3 | x3 | x3 | x3 | x3 | x3 | x3 | x3 | x3 | x3 | x3 | x3 | x3 | %109
 x3 | x3 | x3 | x3 | x3 | x3 | x3 | x3 | x3 | x3 | x3 | x3 | x3 | x3 | x3 | x3 | x3 | x3 | x3 | %128
 x3 | x3 | x3 | x3 | x3 | x3 | x3 | x3 | x3 | x3 | x3 | x3 | x3 | x3 | x3 | x3 | x3 | x3 | x3 | %147
 x3 | x3 | x3 | x3 | x3 | x3 | x3 | x3 | x3 | x3 | x3 :: x3 | x3 | x3 | x3 | x3 | x3 | x3 | x3 | %166
 x3 | x3 | x3 | x3 | x3 | x3 | x3 | x3 | x3 | x3 | x3 | x3 | x3 | x3 | x3 | x3 | x3 | x3 | x3 | %185
 x3 | x3 | x3 | x3 | x3 | x3 | x3 | x3 | x3 | x3 | x3 | x3 | x3 | x3 | x3 | x3 | x3 | x3 | x3 | %204
 x3 | x3 | x3 | x3 | x3 | x3 | x3 | x3 | x3 | x3 | x3 | x3 | x3 | x3 | x3 | x3 | x3 | x3 | x3 :| %223
V:6
 x8 | x8 | x8 | x8 | x8 | x8 | x8 | x8 | x8 | x8 | x8 | x8 | x8 | x8 | x8 | x8 | x8 | x8 | x8 | %19
 x8 | x8 | x8 | x8 | x8 | x8 | x6[K:treble] x2 | x8 | x8 |[K:bass] x8 | x8 | x8 | x8 | x8 | x8 | %34
 x8 | x8 | x8 | x8 | x8 | x8 | x8 | x8 | x8 | x8 | x8 | x8 |[K:treble] x8 |[K:bass] x8 | x8 | x8 | %50
 x8 | x8 | x8 | x8 | x8 |][M:3/4] x6 | x6 | x6 | x6 | x6 | x6 | x6 | x6 | x6 | x6 | %65
 x2[K:treble] x4 | x6 | x6 | x2[K:bass] x4 | x2[K:treble] x4 | x6 | x6 | x6 | x6 | x6 | x6 | x6 | %77
 x6 | x6 | x6 | x6 | x6 | x6 | x6 | x6 | x4[K:bass] x2 | x6 | x6 | x6 | x6 | x6 | x6 | x6 | %93
 A,2 z2 x2 | x6 | x6 |][M:3/8] x3 | x3 | x3 | x3 | x3 | x3 | x3 | x3 | x3 | x3 | x3 | x3 | x3 | %109
 x3 | x3 | x3 | x3 | x3 | x3 | x3 | x3 | x3 | x3 | x3 | x3 | x3 | x3 | x3 | x3 | x3 | x3 | x3 | %128
[K:treble] x3 | x3 | x3 |[K:bass] x3 | x3 | x3 | x3 | x3 | x3 | x3 | x3 | x3 | x3 | x3 | x3 | x3 | %144
 x3 | x3 | x3 | x3 | x3 | x3 | x3 | x3 | x3 | x3 | x3 | x3 | x3 | x3 :: x3 | x3 | x3 | x3 | x3 | %163
 x3 | x3 |[K:treble] x3 | x3 | x3 | x3 | x3 | x3 | x3 | x3 | x3 | x3 |[K:bass] x3 | x3 | x3 | x3 | %179
 x3 | x3 | x2[K:treble] x | x3 | x3 | x3 | x3 | x3 | x3 |[K:bass] x3 | x3 | x3 | x3 | x3 | x3 | %194
 x3 | x3 | x3 | x3 | x3 | x3 | x3 | x3 | x3 | x3 |[K:treble] x3 |[K:bass] x3 | x3 | x3 | x3 | x3 | %210
 x3 | x3 | x3 | x3 | x3 | x3 | x3 | x3 | x3 | x3 | x3 | x3 | x3 :| %223

